ChemSepProc Diagram.svg

<?xml version="1.0"?>
<svg xmlns:rdf="http://www.w3.org/1999/02/22-rdf-syntax-ns#" xmlns="http://www.w3.org/2000/svg" xmlns:cc="http://web.resource.org/cc/" xmlns:xlink="http://www.w3.org/1999/xlink" xmlns:dc="http://purl.org/dc/elements/1.1/" id="svg2" height="509.5" width="658.1" version="1.0">
 <g id="layer1" transform="translate(-39,-221.5)">
  <rect id="rect2252" rx="37" ry="37" height="280" width="150.4" stroke="#000" y="345.5" x="178.2" stroke-width="5" fill="none"/>
  <path id="path3235" d="m475.89 682h198.11m-424.4-56.5v56.5h151.03" stroke="#000" stroke-width="5" fill="none"/>
  <path id="path5175" d="m438.5 644.12v-74.32l-99.5 0.2" stroke="#000" stroke-width="5" fill="none"/>
  <path id="path8096" d="m438.5 303.47v136.73m-188.9-94.7v-78.9h151.52" stroke="#000" stroke-width="5" fill="none"/>
  <path id="path9067" d="m342.3 452.3h332.8" stroke="#000" stroke-width="5" fill="none"/>
  <path id="path10051" d="m48 484h118" stroke="#000" stroke-width="5" fill="none"/>
  <path id="path11044" d="m156 474l20.3 10-20.3 10 3-10-3-10z"/>
  <use id="use11054" xlink:href="#path11044" transform="translate(512,197.8)" height="1052.3" width="744" y="0" x="0"/>
  <use id="use11056" xlink:href="#path11044" transform="translate(512,-31.6)" height="1052.3" width="744" y="0" x="0"/>
  <use id="use11058" xlink:href="#path11044" transform="matrix(-1,0,0,1,506.8,-31.6)" height="1052.3" width="744" y="0" x="0"/>
  <use id="use11060" xlink:href="#path11044" transform="matrix(-1,0,0,1,506.8,85.8)" height="1052.3" width="744" y="0" x="0"/>
  <use id="use11062" xlink:href="#path11044" transform="matrix(0,1,-1,0,922.5,274)" height="1052.3" width="744" y="0" x="0"/>
  <g id="g11415">
   <path id="path6146" d="m476 682a37.5 37.5 0 1 1 -75 0 37.5 37.5 0 1 1 75 0z" stroke="#000" stroke-width="5" fill="none"/>
   <path id="path7117" d="m399.2 719.1l29.7-51.4 7.1 27.1 42.2-71.4" stroke="#000" stroke-width="5" fill="none"/>
   <use id="use11066" xlink:href="#path11044" transform="matrix(.53340 -.84586 .84586 .53340 -16.1 500.8)" height="1052.3" width="744" y="0" x="0"/>
  </g>
  <use id="use11420" xlink:href="#g11415" transform="matrix(-1,0,0,-1,877.6,948.2)" height="1052.3" width="744" y="0" x="0"/>
 </g>
 <metadata>
  <rdf:RDF>
   <cc:Work>
    <dc:format>image/svg+xml</dc:format>
    <dc:type rdf:resource="http://purl.org/dc/dcmitype/StillImage"/>
    <cc:license rdf:resource="http://creativecommons.org/licenses/publicdomain/"/>
    <dc:publisher>
     <cc:Agent rdf:about="http://openclipart.org/">
      <dc:title>Openclipart</dc:title>
     </cc:Agent>
    </dc:publisher>
   </cc:Work>
   <cc:License rdf:about="http://creativecommons.org/licenses/publicdomain/">
    <cc:permits rdf:resource="http://creativecommons.org/ns#Reproduction"/>
    <cc:permits rdf:resource="http://creativecommons.org/ns#Distribution"/>
    <cc:permits rdf:resource="http://creativecommons.org/ns#DerivativeWorks"/>
   </cc:License>
  </rdf:RDF>
 </metadata>
</svg>

<?xml version="1.0" encoding="UTF-8" standalone="no"?>
<!-- Created with Inkscape (http://www.inkscape.org/) -->
<svg
   xmlns:dc="http://purl.org/dc/elements/1.1/"
   xmlns:cc="http://web.resource.org/cc/"
   xmlns:rdf="http://www.w3.org/1999/02/22-rdf-syntax-ns#"
   xmlns:svg="http://www.w3.org/2000/svg"
   xmlns="http://www.w3.org/2000/svg"
   xmlns:xlink="http://www.w3.org/1999/xlink"
   xmlns:sodipodi="http://sodipodi.sourceforge.net/DTD/sodipodi-0.dtd"
   xmlns:inkscape="http://www.inkscape.org/namespaces/inkscape"
   width="658.1"
   height="509.5"
   id="svg2"
   sodipodi:version="0.32"
   inkscape:version="0.45.1"
   sodipodi:docbase="C:\Documents and Settings\DavidR\My Documents\My Pictures"
   sodipodi:docname="ChemSepProcDiagram.svg"
   inkscape:output_extension="org.inkscape.output.svg.inkscape"
   version="1.0">
  <defs
     id="defs4" />
  <sodipodi:namedview
     id="base"
     pagecolor="#ffffff"
     bordercolor="#666666"
     borderopacity="1.0"
     gridtolerance="10000"
     guidetolerance="10"
     objecttolerance="10"
     inkscape:pageopacity="0.0"
     inkscape:pageshadow="2"
     inkscape:zoom="1.979899"
     inkscape:cx="300"
     inkscape:cy="392.52136"
     inkscape:document-units="px"
     inkscape:current-layer="g11415"
     inkscape:window-width="1024"
     inkscape:window-height="708"
     inkscape:window-x="0"
     inkscape:window-y="26"
     showguides="true"
     inkscape:guide-bbox="true" />
  <metadata
     id="metadata7">
    <rdf:RDF>
      <cc:Work
         rdf:about="">
        <dc:format>image/svg+xml</dc:format>
        <dc:type
           rdf:resource="http://purl.org/dc/dcmitype/StillImage" />
      </cc:Work>
    </rdf:RDF>
  </metadata>
  <g
     inkscape:label="Layer 1"
     inkscape:groupmode="layer"
     id="layer1"
     transform="translate(-39,-221.5)">
    <rect
       style="fill:none;stroke:#000000;stroke-width:5"
       id="rect2252"
       width="150.4"
       height="280"
       x="178.2"
       y="345.5"
       ry="37"
       rx="37" />
    <path
       style="fill:none;stroke:#000000;stroke-width:5"
       d="M 475.89097,682 L 674,682 M 249.6,625.5 L 249.6,682 L 400.63461,682"
       id="path3235"
       sodipodi:nodetypes="ccccc" />
    <path
       style="fill:none;stroke:#000000;stroke-width:5"
       d="M 438.5,644.11928 L 438.5,569.8 L 339,570"
       id="path5175"
       sodipodi:nodetypes="ccc" />
    <path
       style="fill:none;stroke:#000000;stroke-width:5"
       d="M 438.5,303.47057 L 438.5,440.2 M 249.6,345.5 L 249.6,266.6 L 401.12436,266.6"
       id="path8096"
       sodipodi:nodetypes="ccccc" />
    <path
       style="fill:none;stroke:#000000;stroke-width:5"
       d="M 342.3,452.3 L 675.1,452.3"
       id="path9067" />
    <path
       style="fill:none;stroke:#000000;stroke-width:5"
       d="M 48,484 L 166,484"
       id="path10051" />
    <path
       style="fill:#000000;stroke:none;stroke-width:1px"
       d="M 156,474 L 176.3,484 L 156,494 L 159,484 L 156,474 z "
       id="path11044" />
    <use
       x="0"
       y="0"
       xlink:href="#path11044"
       id="use11054"
       transform="translate(512,197.8)"
       width="744"
       height="1052.3" />
    <use
       x="0"
       y="0"
       xlink:href="#path11044"
       id="use11056"
       transform="translate(512,-31.6)"
       width="744"
       height="1052.3" />
    <use
       x="0"
       y="0"
       xlink:href="#path11044"
       id="use11058"
       transform="matrix(-1,0,0,1,506.8,-31.6)"
       width="744"
       height="1052.3" />
    <use
       x="0"
       y="0"
       xlink:href="#path11044"
       id="use11060"
       transform="matrix(-1,0,0,1,506.8,85.8)"
       width="744"
       height="1052.3" />
    <use
       x="0"
       y="0"
       xlink:href="#path11044"
       id="use11062"
       transform="matrix(0,1,-1,0,922.5,274)"
       width="744"
       height="1052.3" />
    <g
       id="g11415">
      <path
         d="M 476 682 A 37.5 37.5 0 1 1  401,682 A 37.5 37.5 0 1 1  476 682 z"
         sodipodi:ry="37.5"
         sodipodi:rx="37.5"
         sodipodi:cy="682"
         sodipodi:cx="438.5"
         id="path6146"
         style="fill:none;stroke:#000000;stroke-width:5"
         sodipodi:type="arc" />
      <path
         id="path7117"
         d="M 399.2,719.1 L 428.9,667.7 L 436,694.8 L 478.2,623.4"
         style="fill:none;stroke:#000000;stroke-width:5" />
      <use
         height="1052.3"
         width="744"
         transform="matrix(0.5333969,-0.845865,0.845865,0.5333969,-16.1,500.8)"
         id="use11066"
         xlink:href="#path11044"
         y="0"
         x="0" />
    </g>
    <use
       x="0"
       y="0"
       xlink:href="#g11415"
       id="use11420"
       transform="matrix(-1,0,0,-1,877.6,948.2)"
       width="744"
       height="1052.3" />
  </g>
</svg>
